assets/images/logoma.svg

<svg width="35" height="49" viewBox="0 0 35 49" fill="none" xmlns="http://www.w3.org/2000/svg">
<g clip-path="url(#clip0_38_42)">
<path d="M17.32 0C12.7273 0.0026494 8.32339 1.82828 5.07584 5.07584C1.82828 8.32339 0.0026494 12.7273 0 17.32C0.206647 21.3594 1.30274 25.3033 3.21 28.87L13.83 46.73C14.1904 47.3372 14.7026 47.8403 15.3162 48.1897C15.9299 48.539 16.6239 48.7228 17.33 48.7228C18.0361 48.7228 18.7301 48.539 19.3438 48.1897C19.9574 47.8403 20.4696 47.3372 20.83 46.73L31.44 28.87C33.3473 25.3033 34.4434 21.3594 34.65 17.32C34.6474 12.7255 32.8203 8.32015 29.5706 5.0723C26.3209 1.82446 21.9145 -7.64906e-07 17.32 0" fill="black"/>
<path d="M9.01318 15.6198V24.63H6.39014V6.26868H9.1968L12.292 17.7052L15.3872 6.26868H18.1938V24.63H15.5708V15.6198L13.1314 24.63H11.4526L9.01318 15.6198ZM24.6465 22.007H22.2465L21.8923 24.63H19.2431L21.7218 6.26868H25.1712L27.6368 24.63H25.0007L24.6465 22.007ZM22.6006 19.3839H24.2924L23.4399 13.0886L22.6006 19.3839Z" fill="white"/>
</g>
<defs>
<clipPath id="clip0_38_42">
<rect width="34.65" height="48.72" fill="white"/>
</clipPath>
</defs>
</svg>

<svg width="35" height="49" fill="none" xmlns="http://www.w3.org/2000/svg"><g clip-path="url(#clip0_38_42)"><path d="M17.32 0A17.33 17.33 0 000 17.32a27.47 27.47 0 003.21 11.55l10.62 17.86a4.07 4.07 0 007 0l10.61-17.86a27.468 27.468 0 003.21-11.55A17.33 17.33 0 0017.32 0" fill="#000"/><path d="M9.013 15.62v9.01H6.39V6.269h2.807l3.095 11.436L15.387 6.27h2.807v18.36H15.57v-9.01l-2.44 9.01h-1.678l-2.44-9.01zm15.633 6.387h-2.4l-.354 2.623h-2.649l2.479-18.361h3.45l2.465 18.361H25l-.355-2.623zm-2.045-2.623h1.691l-.852-6.295-.84 6.295z" fill="#fff"/></g><defs><clipPath id="clip0_38_42"><path fill="#fff" d="M0 0h34.65v48.72H0z"/></clipPath></defs></svg>
